X: 305723
M: 2/4
L: 1/16
K: Am
{g}[a4c4] {a}[a4d4] | [a2c2]gf e2gf | {f}e2dc {e}d2cB | {d}c2BA {c}B2AG |\
c2 |\
a4 f4 | c2fa cfga | _b2(ba) (ag)(gf) | (fe)(ed) cefg |\
a4 f4 | d2fa _b2a2 | (g3f/e/) (g2f/d/) | c2cd ef^g"^D.C."g |]
(3(gfd) !p!|\
.e2.g2.f2.d2 | .c2.G2.e2z2 | .e2.g2.f2.d2 | .c2.G2.e2z2 |\
e6 d!f!c |  BcBA GAGF | EFGA B2cd | c2cc B2B"^D.C."B |]


